icons-common/reload.svg

<svg height="1em" width="auto" viewBox="0 0 105 105" fill="currentColor" xmlns="http://www.w3.org/2000/svg">
    <path d="M76.0154 23.2784L57.5016 30.599L60.091 25.087L66.3917 43.9483C67.0391 45.9291 66.0033 48.0392 64.0181 48.7282C62.1193 49.3741 60.0478 48.3837 59.3142 46.532L51.9777 28.0583C51.0714 25.8191 52.2798 23.2784 54.567 22.5464L73.4693 16.2162C78.0438 14.709 80.5037 21.5129 76.0586 23.2784H76.0154Z"
          />
    <path d="M62.8095 25.5608C86.4157 32.2785 92.9322 64.7905 73.9868 80.2498C62.4211 90.5417 43.6052 90.5417 32.0826 80.2498C13.094 64.7905 19.6105 32.2785 43.2167 25.5608C47.9207 24.1397 50.1648 31.1589 45.5472 32.7522C28.2417 38.0488 23.2788 62.5943 37.5202 73.8335C58.235 90.9292 87.1925 66.3407 73.4258 43.2163C70.5343 38.3503 65.8304 34.5177 60.3927 32.7091C55.7751 31.0727 58.0623 24.1828 62.7663 25.5608H62.8095Z"
          />
</svg>

<svg xmlns="http://www.w3.org/2000/svg" width="auto" height="1em" fill="currentColor" viewBox="0 0 105 105">
    <path d="M76.015 23.278 57.502 30.6l2.589-5.512 6.3 18.861a3.787 3.787 0 0 1-2.373 4.78c-1.899.646-3.97-.344-4.704-2.196l-7.336-18.474c-.907-2.239.302-4.78 2.589-5.512l18.902-6.33c4.575-1.507 7.035 5.297 2.59 7.062z"/>
    <path d="M62.81 25.56c23.606 6.719 30.122 39.23 11.177 54.69-11.566 10.292-30.382 10.292-41.904 0C13.094 64.79 19.61 32.279 43.217 25.56c4.704-1.42 6.948 5.599 2.33 7.192C28.242 38.05 23.28 62.594 37.52 73.834c20.715 17.095 49.672-7.493 35.906-30.618-2.892-4.866-7.596-8.698-13.033-10.507-4.618-1.636-2.33-8.526 2.373-7.148z"/>
</svg>
